packages/core/src/svgs/kp3r.svg

<svg width="24" height="24" viewBox="0 0 24 24" fill="none" xmlns="http://www.w3.org/2000/svg">
<g clip-path="url(#clip0_31_12847)">
<path d="M0 0H24V24H0V0Z" fill="#F0F3FA"/>
<path fill-rule="evenodd" clip-rule="evenodd" d="M8.57136 8.00578C8.57136 6.18778 10.0551 4.71436 11.8855 4.71436H12.1144C13.9444 4.71436 15.4285 6.18778 15.4285 8.00578V10.7182C16.1472 10.7705 16.7142 11.3748 16.7142 12.1128V17.0302C16.7142 17.8025 16.0928 18.4286 15.3269 18.4286H8.67293C7.90707 18.4286 7.28564 17.8025 7.28564 17.0302V12.1128C7.28564 11.3748 7.85264 10.7705 8.57136 10.7182V8.00578ZM9.4285 10.7144H14.5714V7.9445C14.5714 6.63436 13.4202 5.5715 11.9999 5.5715C10.5796 5.5715 9.4285 6.63436 9.4285 7.9445V10.7144ZM8.6005 11.5715C8.34764 11.5715 8.14279 11.7759 8.14279 12.0284V17.1151C8.14279 17.3671 8.34764 17.5715 8.6005 17.5715H15.3994C15.6522 17.5715 15.8571 17.3671 15.8571 17.1146V12.0284C15.8571 11.7759 15.6522 11.5715 15.3994 11.5715H8.6005ZM11.9999 12.8572C11.8863 12.8572 11.7773 12.9024 11.6969 12.9827C11.6165 13.0631 11.5714 13.1721 11.5714 13.2858V14.1429C11.5714 14.1798 11.5756 14.2158 11.5846 14.2501C11.4184 14.3421 11.2875 14.4868 11.2125 14.6613C11.1374 14.8359 11.1225 15.0304 11.1701 15.2144C11.2176 15.3983 11.3249 15.5612 11.4751 15.6776C11.6253 15.7939 11.8099 15.857 11.9999 15.857C12.1899 15.857 12.3745 15.7939 12.5247 15.6776C12.675 15.5612 12.7823 15.3983 12.8298 15.2144C12.8773 15.0304 12.8624 14.8359 12.7874 14.6613C12.7123 14.4868 12.5814 14.3421 12.4152 14.2501C12.4238 14.2158 12.4285 14.1798 12.4285 14.1429V13.2858C12.4285 13.1721 12.3833 13.0631 12.303 12.9827C12.2226 12.9024 12.1136 12.8572 11.9999 12.8572Z" fill="#0277FD"/>
</g>
<defs>
<clipPath id="clip0_31_12847">
<rect width="24" height="24" fill="white"/>
</clipPath>
</defs>
</svg>

<svg xmlns="http://www.w3.org/2000/svg" width="24" height="24" fill="none" viewBox="0 0 24 24"><g clip-path="url(#a)"><path fill="#F0F3FA" d="M0 0h24v24H0z"/><path fill="#0277FD" fill-rule="evenodd" d="M8.571 8.006c0-1.818 1.484-3.292 3.315-3.292h.228c1.83 0 3.314 1.474 3.314 3.292v2.712a1.394 1.394 0 0 1 1.286 1.395v4.917c0 .772-.621 1.399-1.387 1.399H8.673a1.393 1.393 0 0 1-1.387-1.399v-4.917c0-.738.567-1.342 1.285-1.395zm.857 2.708h5.143v-2.77c0-1.31-1.15-2.372-2.571-2.372-1.42 0-2.572 1.062-2.572 2.372zm-.828.857a.457.457 0 0 0-.457.457v5.087c0 .252.205.457.457.457h6.8a.457.457 0 0 0 .457-.457v-5.087a.457.457 0 0 0-.458-.457zm3.4 1.286a.43.43 0 0 0-.429.429v.857q0 .056.014.107a.857.857 0 1 0 .83 0 .4.4 0 0 0 .014-.107v-.857a.43.43 0 0 0-.43-.429" clip-rule="evenodd"/></g><defs><clipPath id="a"><path fill="#fff" d="M0 0h24v24H0z"/></clipPath></defs></svg>
